!!!OTL: Sipan
!!!ARE: Asia, China,ÿShandong, Rizhao
!! III, 397
!!!SCT: C1576F
!!!YEM: Copyright 1995, estate of Helmut Schaffrath.
**kern
*ICvox
*Ivox
!! Mixed meters:  3/4; 2/4
*M2/4
*k[f#c#g#d#]
*E:
{8ee
8ee
16cc#
16ee
8cc#
8b
8cc#
=1
4.b
16g#
16f#
=2
8.e
16f#
4g#}
=3
{8.cc#
16b
16g#
16b
16ee
16cc#
=4
8.b
16g#
16f#
16g#
16f#
16e
=5
4c#}
{8b
8b
=6
16g#
16f#
8e
16f#
16g#
16f#
16e
=7
4c#}
{8.b
16cc#
=8
8ee
8ee
8.cc#
16b
=9
16g#
16b
16cc#
16ee
8.b
16g#
=10
4g#}
{8f#
8e
=11
16f#
16e
16f#
16g#
4b
=12
16cc#
16b
16cc#
16ee
8.b
16cc#
=13
8.e
16c#
4e}
=14
{4f#
8b
8g#
=15
8.f#
16e
[4c#
=16
2c#]}
=17
{8.e
16f#
16g#
16f#
8g#
=18
8g#
16e
16g#
[4f#
=19
8f#]
16g#
16f#
16e
16f#
16e
16c#
=20
2B
=21
8.e
16f#
8g#
8g#
=22
8.f#
16c#
[4e
=23
2e]}
=24
{4b
8b
8g#
=25
4f#
8e
8c#
=26
4.B
8c#
=27
8e
8f#
8e
8c#
=28
4.B
8c#
=29
2B}
=30
{4g#
8b
8f#
=31
2g#
=32
8.b
16cc#
8ee
8cc#
=33
4.b
16g#
16f#
=34
8.e
16f#
4g#
=35
8b
16g#
16b
[4cc#
=36
*M3/4
2.cc#]}
=37
*M2/4
{8b
16cc#
16b
8g#
8b
=38
8.ee
16cc#
8.b
16g#
=39
8b
16g#
16f#
16g#
16f#
8e
=40
16f#
16g#
16f#
16e
4c#}
=41
{8.b
16g#
16g#
16b
16dd#
16cc#
=42
4g#
8f#
8c#
=43
4e
[4f#
=44
2f#]}
=45
{8b
16cc#
16b
8g#
8b
=46
8.ee
16cc#
8.b
16g#
=47
8b
16g#
16f#
16g#
16f#
8e
=48
16f#
16g#
16f#
16e
4c#}
=49
{8.b
16g#
16g#
16b
16dd#
16cc#
=50
4g#
8f#
8c#
=51
4e
[4f#
=52
2f#]}
==
!!!AGN: Xiaodiao
!!!AMT: irregular
!!!AIN: vox
!!!EED: Helmut Schaffrath
!!!EEV: 1.0
*-
!!!ONB: Tied note syntax fixed by Craig Sapp, 2004/05/03/
